teeny/outline/battery-1.svg

<svg width="15" height="15" viewBox="0 0 15 15" fill="none" xmlns="http://www.w3.org/2000/svg">
<path d="M14.5 10L14.5 5M2.5 11L2.5 4M12.5 11.5V3.5C12.5 2.94772 12.0523 2.5 11.5 2.5L1.5 2.5C0.947715 2.5 0.5 2.94772 0.5 3.5L0.5 11.5C0.5 12.0523 0.947715 12.5 1.5 12.5H11.5C12.0523 12.5 12.5 12.0523 12.5 11.5Z" stroke="black"/>
</svg>

<svg viewBox="0 0 15 15" xmlns="http://www.w3.org/2000/svg"><path fill="none" stroke="#000" d="M14.5 10V5m-12 6V4m10 7.5v-8c0-.56-.45-1-1-1h-10c-.56 0-1 .44-1 1v8c0 .55.44 1 1 1h10c.55 0 1-.45 1-1Z"/></svg>
